X:13
T:I Put My Little Hand In
%%score 1 { 2 | 3 }
L:1/8
Q:1/4=100
M:2/4
I:linebreak $
K:F
V:1 treble nm="Violin"
V:2 treble nm="Piano"
V:3 bass 
V:1
C | FF F/F/F | F3 F | AA A/A/A | A3 F |$ cc c/c/c/c/ | cc cc/c/ | cB AG | F3 z |$ 
w: I|puy my lit- tle hand|in, Ii|put my lit- tle hand|out, I|give my lit- tle hand a|shake, shake, shake, And I|turn my self a-|round.|
[M:6/8][Q:3/8=100] FFF F2 A | c3- c2 z | FFF F2 A | c3- c2 z |$ FFF F2 A | c3- c2 z | cdc BAG | 
w: Here we go loo- by-|loo, _|Here we go loo- by|la, _|Here we go loo- by|loo, _|All on a Sat- ur- day|
F2 C C2 z | cdc BAG | F3- F2 z :| 
w: night, Tra- la,|All on a Sat- ur- day|night. _|
V:2
C | [A,F]F F/F/F | [A,F]3 [CF] | [FA][FA] [FA]/[FA]/[FA] | [FA]3 [CF] |$ 
[Fc][Fc] [Fc]/[Fc]/[Fc]/[Fc]/ | [Fc][Fc] [Fc][Fc]/[Fc]/ | [Ec][DB] [CA][B,G] | [A,F]3 z |$ 
[M:6/8] FFF F2 A | [Fc]3- [Fc]2 z | FFF F2 A | [Fc]3- [Fc]2 z |$ FFF F2 A | [Fc]3- [Fc]2 z | 
[Ec]dc [EB]AG | F2 C C2 z | [Ec]dc [EB]AG | [CF]3- [CF]2 z :| 
V:3
z | [F,,C,]2 [C,A,]2 | [F,,C,]2 [C,A,]2 | [F,,C,]2 [C,A,]2 | [F,,C,]2 [C,A,]2 |$ 
[F,,C,]2 [C,A,]2 | [F,,C,]2 [C,A,]2 | [C,,C,]2 [C,,C,]2 | [F,,C,F,]3 z |$ 
[M:6/8] [F,,C,]3 [C,F,A,]3 | [F,,C,]3 [C,F,A,]2 z | [F,,C,]3 [C,F,A,]3 | [F,,C,]3 [C,F,A,]2 z |$ 
[F,,C,]3 [C,F,A,]3 | [F,,C,]3 [C,F,A,]2 z | [C,,C,]3 [C,E,B,]3 | [F,,C,]3 [C,F,A,]3 | 
[C,,C,]3 [C,E,B,]3 | [F,A,]3- [F,A,]2 z :| 



